icons/yin.svg

<svg width="16" height="16" viewBox="0 0 16 16" fill="none" xmlns="http://www.w3.org/2000/svg">
<path d="M8.18652 1.51855C8.20153 1.51932 8.21649 1.52054 8.23145 1.52148C11.7065 1.64339 14.4863 4.49523 14.4863 8C14.4863 11.5823 11.5823 14.4863 8 14.4863L7.81348 14.4814C7.79812 14.4807 7.78288 14.4785 7.76758 14.4775C4.29301 14.3551 1.51368 11.5044 1.51367 8C1.51368 4.41772 4.41772 1.51368 8 1.51367L8.18652 1.51855ZM8 9.91211C7.47199 9.91211 7.04395 10.3402 7.04395 10.8682C7.04395 11.3962 7.47199 11.8242 8 11.8242C8.52801 11.8242 8.95605 11.3962 8.95605 10.8682C8.95605 10.3402 8.52801 9.91211 8 9.91211ZM8 3.01367C5.24615 3.01368 3.01368 5.24615 3.01367 8C3.01368 9.35631 3.55594 10.5854 4.43457 11.4844C4.43368 11.4792 4.43348 11.4739 4.43262 11.4688C4.41719 11.3764 4.40478 11.283 4.39648 11.1885C4.3957 11.1797 4.39525 11.1709 4.39453 11.1621C4.38673 11.0651 4.38184 10.9671 4.38184 10.8682C4.38184 8.86992 6.00176 7.25001 8 7.25C9.16982 7.24999 10.1182 6.30166 10.1182 5.13184C10.1182 3.96203 9.16981 3.01368 8 3.01367ZM8 4.17578C8.52801 4.17578 8.95605 4.60383 8.95605 5.13184C8.95605 5.65985 8.52801 6.08789 8 6.08789C7.47199 6.08789 7.04395 5.65985 7.04395 5.13184C7.04395 4.60383 7.47199 4.17578 8 4.17578Z" fill="#909090" fill-opacity="0.9"/>
</svg>

<svg xmlns="http://www.w3.org/2000/svg" width="16" height="16" fill="none" viewBox="0 0 16 16"><path fill="#909090" fill-opacity=".9" d="m8.187 1.519.044.002A6.483 6.483 0 0 1 14.486 8 6.486 6.486 0 0 1 8 14.486l-.187-.005q-.023 0-.045-.004A6.48 6.48 0 0 1 1.514 8 6.486 6.486 0 0 1 8 1.514zM8 9.912a.956.956 0 1 0 0 1.912.956.956 0 0 0 0-1.912m0-6.898a4.986 4.986 0 0 0-3.565 8.47l-.002-.015a4 4 0 0 1-.037-.28l-.001-.027A3.62 3.62 0 0 1 8 7.25a2.118 2.118 0 0 0 0-4.236m0 1.162a.956.956 0 1 1 0 1.912.956.956 0 0 1 0-1.912"/></svg>
